X: 10
T: The Braes Of Busby - Philis's Birthday - The Graf Spee
C:
M: 4/4
L: 1/8
R: reel
K: Gmaj
P:A
DG G2 (3 Bcd AF | DADF AGFD | G3 B dGBd | cAdc AG G2 |
DG G2 (3 Bcd AF | DEFG AGFD | G3 B dGBd | cAdc AG G2 |
g2 dB dgbg | f2 cB cfaf | g2 de dGBd | cAdc AGGf |
g2 dB dgbg | f2 cB cfaf | (3 gfe fd ecdB | cAFG AG G2 |
(3 Bcd GB GBdG | (3 ABc FA FAcA | (3 Bcd GB dGBd | cAdc AG G2 |
(3 Bcd GB GBdG | (3 ABc FA dFAd | BGBc dGBd | cAdc AG G2 |
P:B
BG ~G2 Bded|B2 Ac BAGE|DEGA B2 Bd|edBG A2 ed|
BG ~G2 Bded|B2 Ac BAGE|DEGA BABd|1 deBA G2 ed:|2 deBA G2 z2||
dega b2 ag|egdc BG ~G2|dega b2 ag|eaag a2 ge|
dega ~b2 ag|egdc BG GF|DEGA BABd|deBA G2 zG:|
P:C
K: Ddor
|:E2CD E~G3|AGcG AGcG|EDCD E~G3|AGcG EDD2:|
|efed cBcA|G~E3 GAcd|efed cBcA|GECD EDD2|
efed cBcA|G~E3 GAcd|eaag efed|cAGE EDD2|
|:eggf gedg|eaag a3g|efed cBcd|edge edd2:|
|:ec (3ccc cAGE|GAcd cAGE|GAcd ecdc|cAGE EDD2:|
|(3efg cg (3efg cg|(3fga da (3fga da|(3efg cg (3efg cg|ABcd edde|
g2af gefd|ecdB cAGE|GAcd ecdB|cAGE EDD2||

